assets/1. Faces/Loudly crying face/Color/loudly_crying_face_color.svg

<svg width="100%" height="100%" viewBox="0 0 32 32" fill="none" xmlns="http://www.w3.org/2000/svg">
<g clip-path="url(#clip0_31_1651)">
<path d="M15.9989 29.9978C25.3333 29.9978 29.9978 23.7303 29.9978 15.9989C29.9978 8.26751 25.3333 2 15.9989 2C6.66443 2 2 8.26751 2 15.9989C2 23.7303 6.66443 29.9978 15.9989 29.9978Z" fill="url(#paint0_radial_31_1651)"/>
<path d="M15.9989 29.9978C25.3333 29.9978 29.9978 23.7303 29.9978 15.9989C29.9978 8.26751 25.3333 2 15.9989 2C6.66443 2 2 8.26751 2 15.9989C2 23.7303 6.66443 29.9978 15.9989 29.9978Z" fill="url(#paint1_radial_31_1651)"/>
<path d="M15.9989 29.9978C25.3333 29.9978 29.9978 23.7303 29.9978 15.9989C29.9978 8.26751 25.3333 2 15.9989 2C6.66443 2 2 8.26751 2 15.9989C2 23.7303 6.66443 29.9978 15.9989 29.9978Z" fill="url(#paint2_radial_31_1651)"/>
<path d="M15.9989 29.9978C25.3333 29.9978 29.9978 23.7303 29.9978 15.9989C29.9978 8.26751 25.3333 2 15.9989 2C6.66443 2 2 8.26751 2 15.9989C2 23.7303 6.66443 29.9978 15.9989 29.9978Z" fill="url(#paint3_radial_31_1651)" fill-opacity="0.6"/>
<path d="M15.9989 29.9978C25.3333 29.9978 29.9978 23.7303 29.9978 15.9989C29.9978 8.26751 25.3333 2 15.9989 2C6.66443 2 2 8.26751 2 15.9989C2 23.7303 6.66443 29.9978 15.9989 29.9978Z" fill="url(#paint4_radial_31_1651)"/>
<path d="M15.9989 29.9978C25.3333 29.9978 29.9978 23.7303 29.9978 15.9989C29.9978 8.26751 25.3333 2 15.9989 2C6.66443 2 2 8.26751 2 15.9989C2 23.7303 6.66443 29.9978 15.9989 29.9978Z" fill="url(#paint5_radial_31_1651)"/>
<path d="M15.9989 29.9978C25.3333 29.9978 29.9978 23.7303 29.9978 15.9989C29.9978 8.26751 25.3333 2 15.9989 2C6.66443 2 2 8.26751 2 15.9989C2 23.7303 6.66443 29.9978 15.9989 29.9978Z" fill="url(#paint6_radial_31_1651)"/>
<path d="M15.9989 29.9978C25.3333 29.9978 29.9978 23.7303 29.9978 15.9989C29.9978 8.26751 25.3333 2 15.9989 2C6.66443 2 2 8.26751 2 15.9989C2 23.7303 6.66443 29.9978 15.9989 29.9978Z" fill="url(#paint7_radial_31_1651)"/>
<path fill-rule="evenodd" clip-rule="evenodd" d="M11 29.2969V8H7.5C6.67157 8 6 8.67157 6 9.5L6 26.4093C7.33326 27.6904 8.99989 28.6835 11 29.2969ZM26 26.4072C24.6669 27.6888 23.0002 28.6824 21 29.2962V8H24.5C25.3284 8 26 8.67157 26 9.5V26.4072Z" fill="url(#paint8_linear_31_1651)"/>
<path d="M6 9C6 9 6.5 7.5 8.5 7.5C10.5 7.5 11 9 11 9" stroke="url(#paint9_radial_31_1651)" stroke-width="2" stroke-linecap="round" stroke-linejoin="round"/>
<path d="M21 9C21 9 21.5 7.5 23.5 7.5C25.5 7.5 26 9 26 9" stroke="url(#paint10_radial_31_1651)" stroke-width="2" stroke-linecap="round" stroke-linejoin="round"/>
<rect x="12" y="11" width="8" height="10" rx="4" fill="url(#paint11_radial_31_1651)"/>
</g>
<defs>
<radialGradient id="paint0_radial_31_1651" cx="0" cy="0" r="1" gradientUnits="userSpaceOnUse" gradientTransform="translate(25.5 9) rotate(132.839) scale(37.5033)">
<stop stop-color="#FFF478"/>
<stop offset="0.474827" stop-color="#FFB02E"/>
<stop offset="1" stop-color="#F70A8D"/>
</radialGradient>
<radialGradient id="paint1_radial_31_1651" cx="0" cy="0" r="1" gradientUnits="userSpaceOnUse" gradientTransform="translate(25.5 9) rotate(131.878) scale(38.9487)">
<stop stop-color="#FFF478"/>
<stop offset="0.474827" stop-color="#FFB02E"/>
<stop offset="1" stop-color="#F70A8D"/>
</radialGradient>
<radialGradient id="paint2_radial_31_1651" cx="0" cy="0" r="1" gradientUnits="userSpaceOnUse" gradientTransform="translate(16 12.5) rotate(101.31) scale(17.8466 22.8581)">
<stop offset="0.787821" stop-color="#F59639" stop-opacity="0"/>
<stop offset="0.972509" stop-color="#FF7DCE"/>
</radialGradient>
<radialGradient id="paint3_radial_31_1651" cx="0" cy="0" r="1" gradientUnits="userSpaceOnUse" gradientTransform="translate(18 14) rotate(135) scale(41.0122)">
<stop offset="0.314853" stop-opacity="0"/>
<stop offset="1"/>
</radialGradient>
<radialGradient id="paint4_radial_31_1651" cx="0" cy="0" r="1" gradientUnits="userSpaceOnUse" gradientTransform="translate(16 17) rotate(77.692) scale(28.1469)">
<stop offset="0.507903" stop-color="#7D6133" stop-opacity="0"/>
<stop offset="1" stop-color="#715B32"/>
</radialGradient>
<radialGradient id="paint5_radial_31_1651" cx="0" cy="0" r="1" gradientUnits="userSpaceOnUse" gradientTransform="translate(16.5 16.5) rotate(55.7131) scale(13.3135 9.65032)">
<stop stop-color="#FFB849"/>
<stop offset="1" stop-color="#FFB847" stop-opacity="0"/>
</radialGradient>
<radialGradient id="paint6_radial_31_1651" cx="0" cy="0" r="1" gradientUnits="userSpaceOnUse" gradientTransform="translate(20.5 18) rotate(9.86581) scale(11.6726)">
<stop stop-color="#FFA64B"/>
<stop offset="0.900412" stop-color="#FFAE46" stop-opacity="0"/>
</radialGradient>
<radialGradient id="paint7_radial_31_1651" cx="0" cy="0" r="1" gradientUnits="userSpaceOnUse" gradientTransform="translate(17.5 15) rotate(43.9708) scale(59.0529)">
<stop offset="0.185425" stop-opacity="0"/>
<stop offset="1" stop-opacity="0.4"/>
</radialGradient>
<linearGradient id="paint8_linear_31_1651" x1="23.5" y1="8" x2="23.5" y2="30" gradientUnits="userSpaceOnUse">
<stop stop-color="#6D9DFF"/>
<stop offset="1" stop-color="#4864FF"/>
</linearGradient>
<radialGradient id="paint9_radial_31_1651" cx="0" cy="0" r="1" gradientUnits="userSpaceOnUse" gradientTransform="translate(8.5 10) rotate(-90) scale(3.5)">
<stop offset="0.404968" stop-color="#432552"/>
<stop offset="0.703424" stop-color="#503F44"/>
<stop offset="0.805624" stop-color="#503F44"/>
<stop offset="1" stop-color="#4C342C"/>
</radialGradient>
<radialGradient id="paint10_radial_31_1651" cx="0" cy="0" r="1" gradientUnits="userSpaceOnUse" gradientTransform="translate(23.5 10) rotate(-90) scale(3.5)">
<stop offset="0.404968" stop-color="#432552"/>
<stop offset="0.703424" stop-color="#503F44"/>
<stop offset="0.805624" stop-color="#503F44"/>
<stop offset="1" stop-color="#4C342C"/>
</radialGradient>
<radialGradient id="paint11_radial_31_1651" cx="0" cy="0" r="1" gradientUnits="userSpaceOnUse" gradientTransform="translate(16 23.2222) rotate(-90) scale(12.2222 9.77778)">
<stop stop-color="#F70A8D"/>
<stop offset="1" stop-color="#89029C"/>
</radialGradient>
<clipPath id="clip0_31_1651">
<rect width="32" height="32" fill="white"/>
</clipPath>
</defs>
</svg>

<svg width="100%" height="100%" viewBox="0 0 32 32" xmlns="http://www.w3.org/2000/svg"><g clip-path="url(#a)"><path fill="url(#b)" d="M15.999 29.998c9.334 0 13.999-6.268 13.999-14 0-7.73-4.665-13.998-14-13.998C6.665 2 2 8.268 2 15.999s4.664 13.999 13.999 13.999"/><path fill="url(#c)" d="M15.999 29.998c9.334 0 13.999-6.268 13.999-14 0-7.73-4.665-13.998-14-13.998C6.665 2 2 8.268 2 15.999s4.664 13.999 13.999 13.999"/><path fill="url(#d)" d="M15.999 29.998c9.334 0 13.999-6.268 13.999-14 0-7.73-4.665-13.998-14-13.998C6.665 2 2 8.268 2 15.999s4.664 13.999 13.999 13.999"/><path fill="url(#e)" fill-opacity=".6" d="M15.999 29.998c9.334 0 13.999-6.268 13.999-14 0-7.73-4.665-13.998-14-13.998C6.665 2 2 8.268 2 15.999s4.664 13.999 13.999 13.999"/><path fill="url(#f)" d="M15.999 29.998c9.334 0 13.999-6.268 13.999-14 0-7.73-4.665-13.998-14-13.998C6.665 2 2 8.268 2 15.999s4.664 13.999 13.999 13.999"/><path fill="url(#g)" d="M15.999 29.998c9.334 0 13.999-6.268 13.999-14 0-7.73-4.665-13.998-14-13.998C6.665 2 2 8.268 2 15.999s4.664 13.999 13.999 13.999"/><path fill="url(#h)" d="M15.999 29.998c9.334 0 13.999-6.268 13.999-14 0-7.73-4.665-13.998-14-13.998C6.665 2 2 8.268 2 15.999s4.664 13.999 13.999 13.999"/><path fill="url(#i)" d="M15.999 29.998c9.334 0 13.999-6.268 13.999-14 0-7.73-4.665-13.998-14-13.998C6.665 2 2 8.268 2 15.999s4.664 13.999 13.999 13.999"/><path fill="url(#j)" fill-rule="evenodd" d="M11 29.297V8H7.5A1.5 1.5 0 0 0 6 9.5v16.91c1.333 1.28 3 2.273 5 2.887m15-2.89c-1.333 1.282-3 2.275-5 2.89V8h3.5A1.5 1.5 0 0 1 26 9.5z" clip-rule="evenodd"/><path stroke="url(#k)" stroke-linecap="round" stroke-linejoin="round" stroke-width="2" d="M6 9s.5-1.5 2.5-1.5S11 9 11 9"/><path stroke="url(#l)" stroke-linecap="round" stroke-linejoin="round" stroke-width="2" d="M21 9s.5-1.5 2.5-1.5S26 9 26 9"/><rect width="8" height="10" x="12" y="11" fill="url(#m)" rx="4"/></g><defs><radialGradient id="b" cx="0" cy="0" r="1" gradientTransform="rotate(132.839 10.786 10.065)scale(37.5033)" gradientUnits="userSpaceOnUse"><stop stop-color="#FFF478"/><stop offset=".475" stop-color="#FFB02E"/><stop offset="1" stop-color="#F70A8D"/></radialGradient><radialGradient id="c" cx="0" cy="0" r="1" gradientTransform="rotate(131.878 10.74 10.193)scale(38.9487)" gradientUnits="userSpaceOnUse"><stop stop-color="#FFF478"/><stop offset=".475" stop-color="#FFB02E"/><stop offset="1" stop-color="#F70A8D"/></radialGradient><radialGradient id="d" cx="0" cy="0" r="1" gradientTransform="rotate(101.31 2.876 12.808)scale(17.8466 22.8581)" gradientUnits="userSpaceOnUse"><stop offset=".788" stop-color="#F59639" stop-opacity="0"/><stop offset=".973" stop-color="#FF7DCE"/></radialGradient><radialGradient id="e" cx="0" cy="0" r="1" gradientTransform="matrix(-29 29 -29 -29 18 14)" gradientUnits="userSpaceOnUse"><stop offset=".315" stop-opacity="0"/><stop offset="1"/></radialGradient><radialGradient id="f" cx="0" cy="0" r="1" gradientTransform="rotate(77.692 -2.555 18.434)scale(28.1469)" gradientUnits="userSpaceOnUse"><stop offset=".508" stop-color="#7D6133" stop-opacity="0"/><stop offset="1" stop-color="#715B32"/></radialGradient><radialGradient id="g" cx="0" cy="0" r="1" gradientTransform="rotate(55.713 -7.36 23.86)scale(13.3135 9.65032)" gradientUnits="userSpaceOnUse"><stop stop-color="#FFB849"/><stop offset="1" stop-color="#FFB847" stop-opacity="0"/></radialGradient><radialGradient id="h" cx="0" cy="0" r="1" gradientTransform="matrix(11.49998 2 -2 11.49998 20.5 18)" gradientUnits="userSpaceOnUse"><stop stop-color="#FFA64B"/><stop offset=".9" stop-color="#FFAE46" stop-opacity="0"/></radialGradient><radialGradient id="i" cx="0" cy="0" r="1" gradientTransform="rotate(43.971 -9.827 29.173)scale(59.0529)" gradientUnits="userSpaceOnUse"><stop offset=".185" stop-opacity="0"/><stop offset="1" stop-opacity=".4"/></radialGradient><radialGradient id="k" cx="0" cy="0" r="1" gradientTransform="matrix(0 -3.5 3.5 0 8.5 10)" gradientUnits="userSpaceOnUse"><stop offset=".405" stop-color="#432552"/><stop offset=".703" stop-color="#503F44"/><stop offset=".806" stop-color="#503F44"/><stop offset="1" stop-color="#4C342C"/></radialGradient><radialGradient id="l" cx="0" cy="0" r="1" gradientTransform="matrix(0 -3.5 3.5 0 23.5 10)" gradientUnits="userSpaceOnUse"><stop offset=".405" stop-color="#432552"/><stop offset=".703" stop-color="#503F44"/><stop offset=".806" stop-color="#503F44"/><stop offset="1" stop-color="#4C342C"/></radialGradient><radialGradient id="m" cx="0" cy="0" r="1" gradientTransform="matrix(0 -12.2222 9.77778 0 16 23.222)" gradientUnits="userSpaceOnUse"><stop stop-color="#F70A8D"/><stop offset="1" stop-color="#89029C"/></radialGradient><linearGradient id="j" x1="23.5" x2="23.5" y1="8" y2="30" gradientUnits="userSpaceOnUse"><stop stop-color="#6D9DFF"/><stop offset="1" stop-color="#4864FF"/></linearGradient><clipPath id="a"><path fill="#fff" d="M0 0h32v32H0z"/></clipPath></defs></svg>
